icons/midnadark/actions/24/lensautofix.svg

<?xml version="1.0" encoding="UTF-8" standalone="no"?>
<!-- Created with Inkscape (http://www.inkscape.org/) -->

<svg
   xmlns:dc="http://purl.org/dc/elements/1.1/"
   xmlns:cc="http://creativecommons.org/ns#"
   xmlns:rdf="http://www.w3.org/1999/02/22-rdf-syntax-ns#"
   xmlns:svg="http://www.w3.org/2000/svg"
   xmlns="http://www.w3.org/2000/svg"
   xmlns:sodipodi="http://sodipodi.sourceforge.net/DTD/sodipodi-0.dtd"
   xmlns:inkscape="http://www.inkscape.org/namespaces/inkscape"
   width="22"
   height="22"
   id="svg4355"
   version="1.1"
   inkscape:version="0.91 r13725"
   sodipodi:docname="lensautofix.svg">
  <defs
     id="defs4357">
    <clipPath
       id="clipPath4160"
       clipPathUnits="userSpaceOnUse">
      <rect
         y="1023.3622"
         x="7"
         height="1"
         width="1"
         id="rect4162"
         style="opacity:1;fill:#f2f2f2;fill-opacity:1;stroke:none;stroke-opacity:1" />
    </clipPath>
  </defs>
  <sodipodi:namedview
     id="base"
     pagecolor="#ffffff"
     bordercolor="#666666"
     borderopacity="1.0"
     inkscape:pageopacity="0.0"
     inkscape:pageshadow="2"
     inkscape:zoom="22.627417"
     inkscape:cx="0.63137819"
     inkscape:cy="13.023472"
     inkscape:document-units="px"
     inkscape:current-layer="layer1"
     showgrid="true"
     width="0px"
     height="0px"
     fit-margin-top="0"
     fit-margin-left="0"
     fit-margin-right="0"
     fit-margin-bottom="0"
     inkscape:window-width="1366"
     inkscape:window-height="633"
     inkscape:window-x="0"
     inkscape:window-y="33"
     inkscape:window-maximized="1"
     inkscape:showpageshadow="false"
     inkscape:snap-bbox="true"
     inkscape:snap-global="true"
     inkscape:object-nodes="true">
    <inkscape:grid
       type="xygrid"
       id="grid4114" />
    <sodipodi:guide
       position="2,13"
       orientation="18,0"
       id="guide4120" />
    <sodipodi:guide
       position="2.0000011,1.9999962"
       orientation="0,18"
       id="guide4122" />
    <sodipodi:guide
       position="20.000001,1.9999962"
       orientation="-18,0"
       id="guide4124" />
    <sodipodi:guide
       position="20.000001,19.999996"
       orientation="0,-18"
       id="guide4126" />
    <sodipodi:guide
       position="3,6"
       orientation="16,0"
       id="guide4128" />
    <sodipodi:guide
       position="3.0000011,2.9999962"
       orientation="0,16"
       id="guide4130" />
    <sodipodi:guide
       position="19.000001,2.9999962"
       orientation="-16,0"
       id="guide4132" />
    <sodipodi:guide
       position="6,19"
       orientation="0,-16"
       id="guide4134" />
  </sodipodi:namedview>
  <metadata
     id="metadata4360">
    <rdf:RDF>
      <cc:Work
         rdf:about="">
        <dc:format>image/svg+xml</dc:format>
        <dc:type
           rdf:resource="http://purl.org/dc/dcmitype/StillImage" />
        <dc:title />
      </cc:Work>
    </rdf:RDF>
  </metadata>
  <g
     inkscape:label="Capa 1"
     inkscape:groupmode="layer"
     id="layer1"
     transform="translate(-544.57141,-742.93359)">
    <g
       id="g4147"
       transform="matrix(1.1428571,0,0,1.1428571,-79.36732,-107.70477)">
      <path
         style="opacity:1;fill:#1d99f3;fill-opacity:1;stroke:none;stroke-linecap:round"
         d="M 11 3 C 6.5817259 3 3 6.5817259 3 11 C 3 15.418274 6.5817259 19 11 19 C 15.418274 19 19 15.418274 19 11 C 19 6.5817259 15.418274 3 11 3 z M 11.109375 6.4277344 C 11.109375 6.4277344 10.999721 6.4291295 11.501953 6.4492188 C 13.864416 6.6529961 15.680041 8.6287659 15.681641 11 C 15.681641 13.52473 13.634105 15.572266 11.109375 15.572266 C 8.5846448 15.572266 6.5371094 13.52473 6.5371094 11 C 6.5371094 8.4752698 8.5846448 6.4277345 11.109375 6.4277344 z M 11.109375 7.5722656 C 9.2158274 7.5722657 7.6816406 9.1064524 7.6816406 11 C 7.6816406 12.893547 9.2158274 14.427734 11.109375 14.427734 C 13.002922 14.427734 14.537109 12.893547 14.537109 11 C 14.537109 9.1064524 13.002922 7.5722656 11.109375 7.5722656 z M 11.109375 8.7148438 C 11.343444 8.7148437 11.565025 8.7594342 11.777344 8.8242188 C 11.384524 9.0046552 11.109375 9.3953452 11.109375 9.8574219 C 11.109375 10.490565 11.61881 11 12.251953 11 C 12.71403 11 13.104713 10.724851 13.285156 10.332031 C 13.349933 10.54435 13.394531 10.765931 13.394531 11 C 13.394531 12.266286 12.375661 13.285156 11.109375 13.285156 C 9.8430894 13.285156 8.8242188 12.266286 8.8242188 11 C 8.8242188 9.7337143 9.8430894 8.7148438 11.109375 8.7148438 z "
         transform="matrix(0.87500003,0,0,0.87500003,545.94641,744.30859)"
         id="path4399" />
      <g
         style="fill:#ffffff;fill-opacity:1"
         inkscape:label="Capa 1"
         id="layer1-0"
         transform="translate(544.66696,-287.42861)" />
    </g>
  </g>
</svg>

<svg xmlns="http://www.w3.org/2000/svg" viewBox="0 0 22 22"><defs><clipPath><path fill="#f2f2f2" d="m7 1023.36h1v1h-1z"/></clipPath></defs><path d="m11 3c-4.418 0-8 3.582-8 8 0 4.418 3.582 8 8 8 4.418 0 8-3.582 8-8 0-4.418-3.582-8-8-8m.109 3.428c0 0-.11.0001.393.021 2.362.204 4.178 2.18 4.18 4.551 0 2.525-2.048 4.572-4.572 4.572-2.525 0-4.572-2.048-4.572-4.572 0-2.525 2.048-4.572 4.572-4.572m0 1.145c-1.894 0-3.428 1.534-3.428 3.428 0 1.894 1.534 3.428 3.428 3.428 1.894 0 3.428-1.534 3.428-3.428 0-1.894-1.534-3.428-3.428-3.428m0 1.143c.234 0 .456.045.668.109-.393.18-.668.571-.668 1.033 0 .633.509 1.143 1.143 1.143.462 0 .853-.275 1.033-.668.065.212.109.434.109.668 0 1.266-1.019 2.285-2.285 2.285-1.266 0-2.285-1.019-2.285-2.285 0-1.266 1.019-2.285 2.285-2.285" transform="translate(0-.004)" fill="#1d99f3"/></svg>
